X:201
T:Unknown
S:Yann Falquet
Z:robin.beech@mcgill.ca
R:reel
M:4/4
L:1/8
K:D
D2FD EDFD | A,DFD GDFD | E2CE A,ECE | A,CEG FDEC |
D2FD EDFD | A,DFD GDFD | E2CE A,CEF | GABc d2dc |1 dBAF :|2 dAFA |:
d3d dcBA | e3e efed | cAAA ABAG | FDEG FDDD |
d3d dcBA | e3e efed | c2ec fcec |1 dfec dAFA :|2 dfec dBAF |]
